X: 2115
T: The AULT WIFE AYONT THE FIRE
C:
Q: "Reel."
R: Reel.
%R: reel
B: James Kerr "Merry Melodies" v.2 p.14 #115
Z: 2016 John Chambers <jc:trillian.mit.edu>
M: C
L: 1/8
K: G
uc |\
cBAG FGAc | cBAG Gfgd |\
cBAG FGAc | BdAB G3 ::\
uc |\
Bdde cdcA | Bddg g/f/e/f/ gd |\
Bdde cdcA | BdAB G3 :|

%%sep 1 1 500
%%sep 1 1 500

